Numix-Light/16/status/indicator-keyboard-Hy.svg

<?xml version="1.0" encoding="UTF-8" standalone="no"?>
<svg
   xmlns:dc="http://purl.org/dc/elements/1.1/"
   xmlns:cc="http://creativecommons.org/ns#"
   xmlns:rdf="http://www.w3.org/1999/02/22-rdf-syntax-ns#"
   xmlns:svg="http://www.w3.org/2000/svg"
   xmlns="http://www.w3.org/2000/svg"
   xmlns:sodipodi="http://sodipodi.sourceforge.net/DTD/sodipodi-0.dtd"
   xmlns:inkscape="http://www.inkscape.org/namespaces/inkscape"
   viewBox="0 0 16 16"
   id="svg2"
   version="1.1"
   inkscape:version="0.91 r13725"
   sodipodi:docname="indicator-keyboard-Hy.svg">
  <metadata
     id="metadata13">
    <rdf:RDF>
      <cc:Work
         rdf:about="">
        <dc:format>image/svg+xml</dc:format>
        <dc:type
           rdf:resource="http://purl.org/dc/dcmitype/StillImage" />
      </cc:Work>
    </rdf:RDF>
  </metadata>
  <defs
     id="defs11" />
  <sodipodi:namedview
     pagecolor="#ffffff"
     bordercolor="#666666"
     borderopacity="1"
     objecttolerance="10"
     gridtolerance="10"
     guidetolerance="10"
     inkscape:pageopacity="0"
     inkscape:pageshadow="2"
     inkscape:window-width="640"
     inkscape:window-height="480"
     id="namedview9"
     showgrid="false"
     inkscape:zoom="14.75"
     inkscape:cx="8"
     inkscape:cy="8"
     inkscape:window-x="65"
     inkscape:window-y="24"
     inkscape:window-maximized="0"
     inkscape:current-layer="svg2" />
  <path
     style="fill:#353535;fill-opacity:1"
     d="M 1.5996094 0 C 0.71320937 2.9605947e-16 0 0.71320937 0 1.5996094 L 0 14.400391 C 2.9605947e-16 15.286791 0.71320937 16 1.5996094 16 L 14.400391 16 C 15.286791 16 16 15.286791 16 14.400391 L 16 1.5996094 C 16 0.71320937 15.286791 0 14.400391 0 L 1.5996094 0 z M 3.2636719 4.0351562 L 3.8769531 4.0351562 L 3.8769531 6.7441406 L 7.2597656 6.7441406 L 7.2597656 4.0351562 L 7.8730469 4.0351562 L 7.8730469 10.273438 L 7.2597656 10.273438 L 7.2597656 7.2753906 L 3.8769531 7.2753906 L 3.8769531 10.273438 L 3.2636719 10.273438 L 3.2636719 4.0351562 z M 8.8574219 5.6191406 L 9.4785156 5.6191406 C 9.5445156 5.9071406 9.6284687 6.2186875 9.7304688 6.5546875 C 9.8324687 6.8846875 9.9462656 7.2280313 10.072266 7.5820312 C 10.204266 7.9360312 10.347906 8.2979219 10.503906 8.6699219 C 10.659906 9.0419219 10.827813 9.4075781 11.007812 9.7675781 C 11.139812 9.3955781 11.257375 9.0448437 11.359375 8.7148438 C 11.461375 8.3848438 11.554672 8.058375 11.638672 7.734375 C 11.728672 7.404375 11.812625 7.0685625 11.890625 6.7265625 C 11.974625 6.3845625 12.060391 6.0151406 12.150391 5.6191406 L 12.736328 5.6191406 C 12.544328 6.4891406 12.324125 7.3362031 12.078125 8.1582031 C 11.832125 8.9802031 11.565344 9.7320156 11.277344 10.416016 C 11.163344 10.686016 11.047734 10.917375 10.927734 11.109375 C 10.807734 11.307375 10.671484 11.469703 10.521484 11.595703 C 10.377484 11.721703 10.207766 11.815 10.009766 11.875 C 9.8177656 11.935 9.5882188 11.964844 9.3242188 11.964844 C 9.1742187 11.964844 9.0361563 11.946156 8.9101562 11.910156 C 8.7901562 11.874156 8.7155469 11.848078 8.6855469 11.830078 L 8.8027344 11.34375 C 8.8267344 11.36175 8.892 11.386016 9 11.416016 C 9.114 11.452016 9.2315625 11.46875 9.3515625 11.46875 C 9.5195625 11.46875 9.6707344 11.452016 9.8027344 11.416016 C 9.9407344 11.380016 10.061922 11.316563 10.169922 11.226562 C 10.277922 11.142562 10.374984 11.030578 10.458984 10.892578 C 10.548984 10.754578 10.636703 10.581094 10.720703 10.371094 C 10.522703 10.005094 10.330531 9.6245156 10.144531 9.2285156 C 9.9645312 8.8325156 9.7928594 8.43325 9.6308594 8.03125 C 9.4748594 7.62325 9.3312188 7.2184063 9.1992188 6.8164062 C 9.0672187 6.4084062 8.9534219 6.0091406 8.8574219 5.6191406 z "
     id="path4" />
</svg>

<svg xmlns="http://www.w3.org/2000/svg" viewBox="0 0 16 16">
 <path d="m 1.6 0 c -0.886 0 -1.6 0.713 -1.6 1.6 l 0 12.801 c 0 0.886 0.713 1.6 1.6 1.6 l 12.801 0 c 0.886 0 1.6 -0.713 1.6 -1.6 l 0 -12.801 c 0 -0.886 -0.713 -1.6 -1.6 -1.6 l -12.801 0 z m 1.664 4.04 l 0.613 0 l 0 2.709 l 3.383 0 l 0 -2.709 l 0.613 0 l 0 6.238 l -0.613 0 l 0 -2.998 l -3.383 0 l 0 2.998 l -0.613 0 l 0 -6.238 z m 5.594 1.584 l 0.621 0 c 0.066 0.288 0.15 0.6 0.252 0.936 c 0.102 0.33 0.216 0.673 0.342 1.027 c 0.132 0.354 0.276 0.716 0.432 1.088 c 0.156 0.372 0.324 0.738 0.504 1.098 c 0.132 -0.372 0.25 -0.723 0.352 -1.053 c 0.102 -0.33 0.195 -0.656 0.279 -0.98 c 0.09 -0.33 0.174 -0.666 0.252 -1.01 c 0.084 -0.342 0.17 -0.711 0.26 -1.107 l 0.586 0 c -0.192 0.87 -0.412 1.717 -0.658 2.539 c -0.246 0.822 -0.513 1.574 -0.801 2.258 c -0.114 0.27 -0.23 0.501 -0.35 0.693 c -0.12 0.198 -0.256 0.36 -0.406 0.486 c -0.144 0.126 -0.314 0.219 -0.512 0.279 c -0.192 0.06 -0.422 0.09 -0.686 0.09 c -0.15 0 -0.288 -0.019 -0.414 -0.055 c -0.12 -0.036 -0.195 -0.062 -0.225 -0.08 l 0.117 -0.486 c 0.024 0.018 0.089 0.042 0.197 0.072 c 0.114 0.036 0.232 0.053 0.352 0.053 c 0.168 0 0.319 -0.017 0.451 -0.053 c 0.138 -0.036 0.259 -0.099 0.367 -0.189 c 0.108 -0.084 0.205 -0.196 0.289 -0.334 c 0.09 -0.138 0.178 -0.311 0.262 -0.521 c -0.198 -0.366 -0.39 -0.747 -0.576 -1.143 c -0.18 -0.396 -0.352 -0.795 -0.514 -1.197 c -0.156 -0.408 -0.3 -0.813 -0.432 -1.215 c -0.132 -0.408 -0.246 -0.807 -0.342 -1.197 z" style="fill:#353535;fill-opacity:1"/>
</svg>
